packages/foundations/assets/icons/functional/images/social/face_sad_14.svg

<svg width="14" height="14" viewBox="0 0 14 14" fill="none" xmlns="http://www.w3.org/2000/svg">
<g clip-path="url(#clip0_187_390)">
<path fill-rule="evenodd" clip-rule="evenodd" d="M6.99998 2.10001C9.70618 2.10001 11.9 4.29381 11.9 7.00001C11.9 9.70621 9.70618 11.9 6.99998 11.9C4.29378 11.9 2.09998 9.70621 2.09998 7.00001C2.09998 4.29381 4.29378 2.10001 6.99998 2.10001ZM6.99998 3.50001C5.07008 3.50001 3.49998 5.07011 3.49998 7.00001C3.49998 8.92991 5.07008 10.5 6.99998 10.5C8.92988 10.5 10.5 8.92991 10.5 7.00001C10.5 5.07011 8.92988 3.50001 6.99998 3.50001ZM6.99788 7.15541C8.06048 7.15541 8.80528 7.81061 8.88648 7.88551C9.17138 8.14661 9.19028 8.58971 8.92848 8.87461C8.79058 9.02441 8.60228 9.10071 8.41258 9.10071C8.24598 9.10001 8.07798 9.04051 7.94498 8.91941C7.92818 8.90471 7.51728 8.55471 6.99858 8.55471C6.55933 8.55471 6.19883 8.8036 6.08843 8.88858L6.05358 8.91661C5.76518 9.17001 5.32418 9.14761 5.06728 8.86061C4.81108 8.57501 4.82998 8.13891 5.11348 7.87991C5.19468 7.80571 5.93528 7.15541 6.99788 7.15541ZM5.59998 4.90001C6.08322 4.90001 6.47498 5.29176 6.47498 5.77501C6.47498 6.25826 6.08322 6.65001 5.59998 6.65001C5.11673 6.65001 4.72498 6.25826 4.72498 5.77501C4.72498 5.29176 5.11673 4.90001 5.59998 4.90001ZM8.39998 4.90001C8.88322 4.90001 9.27498 5.29176 9.27498 5.77501C9.27498 6.25826 8.88322 6.65001 8.39998 6.65001C7.91673 6.65001 7.52498 6.25826 7.52498 5.77501C7.52498 5.29176 7.91673 4.90001 8.39998 4.90001Z" fill="#1A1C1F"/>
</g>
<defs>
<clipPath id="clip0_187_390">
<rect width="14" height="14" fill="white"/>
</clipPath>
</defs>
</svg>

<svg xmlns="http://www.w3.org/2000/svg" width="14" height="14" fill="none"><g clip-path="url(#a)"><path fill="#1A1C1F" fill-rule="evenodd" d="M7 2.1a4.9 4.9 0 1 1 0 9.8 4.9 4.9 0 0 1 0-9.8m0 1.4C5.07 3.5 3.5 5.07 3.5 7s1.57 3.5 3.5 3.5 3.5-1.57 3.5-3.5S8.93 3.5 7 3.5m-.002 3.655c1.062 0 1.807.656 1.888.73a.7.7 0 0 1-.941 1.034c-.017-.014-.428-.364-.946-.364-.44 0-.8.249-.91.334l-.035.028a.7.7 0 0 1-.987-.056.696.696 0 0 1 .046-.981c.082-.074.822-.725 1.885-.725M5.6 4.9a.875.875 0 1 1 0 1.75.875.875 0 0 1 0-1.75m2.8 0a.875.875 0 1 1 0 1.75.875.875 0 0 1 0-1.75" clip-rule="evenodd"/></g><defs><clipPath id="a"><path fill="#fff" d="M0 0h14v14H0z"/></clipPath></defs></svg>
